X:1
T:Kuckuckspolka
C:traditionell
R:volkstanz
A:Oesterreich
%%textfont Helvetica-Narrow 10pt
%%begintext align
S:noten-material (lose kopien) von Elisabeth und Chistoph Huspeka
%%endtext
F:http://simonwascher.info/
Z:abc transcription Simon Wascher
M:2/4
L:1/8
K:G
B |\
d2 d>d | dB e2 | d>d dB | c3d |
^F>F fe | dc f>e | dc BA | G3 :|
|: d |\
gf ed | BB zd | d>d eB | c3d |
gf ed | cc zd | d>d ef | g3 :|
%%wordsfont Times-Italic 11pt
W:aus Simon Waschers TradArchiv
